curriculum/images/exercise-icons/breakout-css.svg

<svg width="82" height="82" viewBox="0 0 82 82" fill="none" xmlns="http://www.w3.org/2000/svg">
<path d="M1 41C1 51.6087 5.21427 61.7828 12.7157 69.2843C20.2172 76.7857 30.3913 81 41 81C51.6087 81 61.7828 76.7857 69.2843 69.2843C76.7857 61.7828 81 51.6087 81 41C81 30.3913 76.7857 20.2172 69.2843 12.7157C61.7828 5.21427 51.6087 1 41 1C30.3913 1 20.2172 5.21427 12.7157 12.7157C5.21427 20.2172 1 30.3913 1 41Z" fill="#DAEDF7" stroke="#DAEDF7"/>
<path d="M10.99 30.174H42.94V42.9539H10.99V30.174Z" fill="#FFE500"/>
<path d="M41.94 30.174H11.99C11.7248 30.174 11.4704 30.2793 11.2829 30.4668C11.0954 30.6544 10.99 30.9087 10.99 31.174V33.374H42.94V31.174C42.94 30.9087 42.8346 30.6544 42.6471 30.4668C42.4596 30.2793 42.2052 30.174 41.94 30.174Z" fill="#FFF48C"/>
<path opacity="0.15" d="M25.75 62.228C25.75 62.4902 26.3698 62.7499 27.5741 62.9922C28.7783 63.2345 30.5434 63.4546 32.7686 63.64C34.9938 63.8255 37.6354 63.9726 40.5428 64.0729C43.4501 64.1733 46.5661 64.225 49.713 64.225C52.8599 64.225 55.9759 64.1733 58.8832 64.0729C61.7906 63.9726 64.4322 63.8255 66.6574 63.64C68.8826 63.4546 70.6477 63.2345 71.8519 62.9922C73.0562 62.7499 73.676 62.4902 73.676 62.228C73.676 61.9657 73.0562 61.706 71.8519 61.4637C70.6477 61.2215 68.8826 61.0013 66.6574 60.8159C64.4322 60.6304 61.7906 60.4833 58.8832 60.383C55.9759 60.2826 52.8599 60.231 49.713 60.231C46.5661 60.231 43.4501 60.2826 40.5428 60.383C37.6354 60.4833 34.9938 60.6304 32.7686 60.8159C30.5434 61.0013 28.7783 61.2215 27.5741 61.4637C26.3698 61.706 25.75 61.9657 25.75 62.228Z" fill="#45413C"/>
<path d="M10.99 42.955H42.94V55.735H10.99V42.955Z" fill="#00B8F0" stroke="#45413C" stroke-linejoin="round"/>
<path d="M10.99 30.174H42.94V42.9539H10.99V30.174Z" stroke="#45413C" stroke-linejoin="round"/>
<path d="M29.6275 21.1391L37.238 10.8722L62.9053 29.8983L55.2948 40.1652L29.6275 21.1391Z" fill="#FF6242"/>
<path d="M60.991 32.483L62.31 30.7C62.3884 30.5945 62.4452 30.4745 62.4771 30.347C62.5091 30.2195 62.5156 30.0869 62.4963 29.9569C62.477 29.8269 62.4322 29.7019 62.3645 29.5892C62.2969 29.4765 62.2077 29.3782 62.102 29.3L38.041 11.468C37.9355 11.3896 37.8155 11.3329 37.688 11.3009C37.5605 11.2689 37.4279 11.2624 37.2979 11.2817C37.1678 11.3011 37.0429 11.3458 36.9302 11.4135C36.8175 11.4811 36.7192 11.5703 36.641 11.676L35.321 13.456L60.991 32.483Z" fill="#FF6242"/>
<path d="M29.6275 21.1391L37.238 10.8722L62.9053 29.8983L55.2948 40.1652L29.6275 21.1391Z" stroke="#45413C" stroke-linejoin="round"/>
<path d="M27.414 37.363H71.346V61.326H27.414V37.363Z" fill="#6DD627" stroke="#45413C" stroke-linejoin="round"/>
</svg>

<svg xmlns="http://www.w3.org/2000/svg" width="82" height="82" fill="none" viewBox="0 0 82 82"><path fill="#daedf7" stroke="#daedf7" d="M1 41a40 40 0 1 0 80 0 40 40 0 0 0-80 0Z"/><path fill="#ffe500" d="M10.99 30.174h31.95v12.78H10.99z"/><path fill="#fff48c" d="M41.94 30.174H11.99a1 1 0 0 0-1 1v2.2h31.95v-2.2a1 1 0 0 0-1-1"/><path fill="#45413c" d="M25.75 62.228c0 .262.62.522 1.824.764s2.97.463 5.195.648 4.866.333 7.774.433c2.907.1 6.023.152 9.17.152s6.263-.052 9.17-.152 5.55-.247 7.774-.433c2.226-.185 3.99-.406 5.195-.648 1.204-.242 1.824-.502 1.824-.764s-.62-.522-1.824-.764-2.97-.463-5.195-.648a164 164 0 0 0-7.774-.433c-2.907-.1-6.023-.152-9.17-.152s-6.263.052-9.17.152-5.55.247-7.774.433c-2.226.185-3.99.405-5.195.648-1.204.242-1.824.502-1.824.764" opacity=".15"/><path fill="#00b8f0" stroke="#45413c" stroke-linejoin="round" d="M10.99 42.955h31.95v12.78H10.99z"/><path stroke="#45413c" stroke-linejoin="round" d="M10.99 30.174h31.95v12.78H10.99z"/><path fill="#ff6242" d="m29.628 21.14 7.61-10.268 25.667 19.026-7.61 10.267z"/><path fill="#ff6242" d="M60.991 32.483 62.31 30.7a1 1 0 0 0-.208-1.4L38.041 11.468a1 1 0 0 0-1.4.208l-1.32 1.78z"/><path stroke="#45413c" stroke-linejoin="round" d="m29.628 21.14 7.61-10.268 25.667 19.026-7.61 10.267z"/><path fill="#6dd627" stroke="#45413c" stroke-linejoin="round" d="M27.414 37.363h43.932v23.963H27.414z"/></svg>
